build/images/icon-fb.svg

<svg width="10" height="20" viewBox="0 0 10 20" fill="none" xmlns="http://www.w3.org/2000/svg">
<path d="M8.17432 3.32083H10V0.140833C9.68503 0.0975 8.60178 0 7.34022 0C4.70794 0 2.90476 1.65583 2.90476 4.69917V7.5H0V11.055H2.90476V20H6.46613V11.0558H9.2534L9.69586 7.50083H6.46529V5.05167C6.46613 4.02417 6.74277 3.32083 8.17432 3.32083Z" fill="white"/>
</svg>

<svg width="10" height="20" fill="none" xmlns="http://www.w3.org/2000/svg"><path d="M8.174 3.32H10V.14A23.573 23.573 0 007.34 0C4.708 0 2.905 1.656 2.905 4.7v2.8H0v3.555h2.905V20h3.561v-8.944h2.787L9.696 7.5h-3.23V5.05c0-1.027.277-1.73 1.708-1.73z" fill="#fff"/></svg>
